chrome/icons/hard-drive.svg

<svg height="16" viewBox="0 320 1024 384" width="16" xmlns="http://www.w3.org/2000/svg" xmlns:xlink="http://www.w3.org/1999/xlink">
  <path d="M125.5,704C108.833,704 92.9167,700.583 77.75,693.75C62.5833,686.917 49.25,677.75 37.75,666.25C26.25,654.75 17.0833,641.417 10.25,626.25C3.41667,611.083 0,595.167 0,578.5L0,445.5C0,428.833 3.41667,412.917 10.25,397.75C17.0833,382.583 26.25,369.25 37.75,357.75C49.25,346.25 62.5833,337.083 77.75,330.25C92.9167,323.417 108.833,320 125.5,320L898.5,320C915.167,320 931.083,323.417 946.25,330.25C961.417,337.083 974.75,346.25 986.25,357.75C997.75,369.25 1006.92,382.583 1013.75,397.75C1020.58,412.917 1024,428.833 1024,445.5L1024,578.5C1024,595.167 1020.58,611.083 1013.75,626.25C1006.92,641.417 997.75,654.75 986.25,666.25C974.75,677.75 961.417,686.917 946.25,693.75C931.083,700.583 915.167,704 898.5,704ZM896,640C905,640 913.333,638.333 921,635C928.667,631.667 935.417,627.083 941.25,621.25C947.083,615.417 951.667,608.667 955,601C958.333,593.333 960,585 960,576L960,448C960,439.333 958.333,431.083 955,423.25C951.667,415.417 947.083,408.583 941.25,402.75C935.417,396.917 928.583,392.333 920.75,389C912.917,385.667 904.667,384 896,384L128,384C119,384 110.667,385.667 103,389C95.3333,392.333 88.5833,396.917 82.75,402.75C76.9167,408.583 72.3333,415.333 69,423C65.6667,430.667 64,439 64,448L64,576C64,585 65.6667,593.417 69,601.25C72.3333,609.083 76.8333,615.833 82.5,621.5C88.1667,627.167 94.9167,631.667 102.75,635C110.583,638.333 119,640 128,640ZM736,496C736,482.667 740.667,471.333 750,462C759.333,452.667 770.667,448 784,448C797.333,448 808.667,452.667 818,462C827.333,471.333 832,482.667 832,496C832,509.333 827.333,520.667 818,530C808.667,539.333 797.333,544 784,544C770.667,544 759.333,539.333 750,530C740.667,520.667 736,509.333 736,496Z" fill="context-fill" fill-opacity="context-fill-opacity">
  </path>
</svg>

<svg xmlns="http://www.w3.org/2000/svg" width="16" height="16" viewBox="0 320 1024 384"><path fill="context-fill" fill-opacity="context-fill-opacity" d="M125.5 704q-25 0-47.75-10.25t-40-27.5-27.5-40T0 578.5v-133q0-25 10.25-47.75t27.5-40 40-27.5T125.5 320h773q25 0 47.75 10.25t40 27.5c11.5 11.5 20.67 24.833 27.5 40S1024 428.833 1024 445.5v133c0 16.667-3.42 32.583-10.25 47.75s-16 28.5-27.5 40q-17.25 17.25-40 27.5T898.5 704ZM896 640q13.5 0 25-5t20.25-13.75T955 601t5-25V448q0-13-5-24.75t-13.75-20.5-20.5-13.75-24.75-5H128q-13.5 0-25 5t-20.25 13.75T69 423t-5 25v128q0 13.5 5 25.25t13.5 20.25 20.25 13.5 25.25 5ZM736 496q0-20 14-34t34-14 34 14 14 34-14 34-34 14-34-14-14-34"/></svg>
